static/svg/dir.svg

<svg width="38" height="37" xmlns="http://www.w3.org/2000/svg" fill="none">

 <g>
  <title>Layer 1</title>
  <path transform="rotate(-90.0896 19.3331 18.4898)" stroke="null" id="svg_1" fill="#9DB5FF" d="m0.94688,18.48985c0,-2.4932 0.48343,-4.8786 1.45028,-7.1561c0.96686,-2.27749 2.26931,-4.23133 3.90736,-5.86154c1.63806,-1.6302 3.58775,-2.93276 5.84911,-3.90769c2.26131,-0.97492 4.63841,-1.46238 7.1315,-1.46238c2.50899,0 4.89819,0.48746 7.1675,1.46238c2.26931,0.97493 4.22694,2.28149 5.873,3.91968c1.64606,1.63819 2.95645,3.59204 3.93137,5.86155c0.97482,2.2695 1.46228,4.6429 1.46228,7.1201c0,2.4933 -0.48746,4.8787 -1.46228,7.1561c-0.97492,2.2775 -2.28531,4.2394 -3.93137,5.8856c-1.64606,1.6461 -3.6037,2.9527 -5.873,3.9196c-2.26931,0.967 -4.65051,1.4504 -7.1435,1.4504c-2.47709,0 -4.85029,-0.4834 -7.1196,-1.4504c-2.26929,-0.9669 -4.22297,-2.2695 -5.86103,-3.9077c-1.63806,-1.6382 -2.94451,-3.592 -3.91935,-5.8615c-0.97485,-2.2695 -1.46227,-4.6589 -1.46227,-7.1681zm4.02722,0c0,2.5892 0.64324,4.9825 1.92971,7.1801c1.28647,2.1976 3.0324,3.9317 5.23782,5.2023c2.20531,1.2706 4.59451,1.9059 7.1675,1.9059c1.93364,0 3.78748,-0.3796 5.56133,-1.1388c1.77395,-0.7592 3.30412,-1.778 4.59061,-3.0566c1.28649,-1.2786 2.30921,-2.8009 3.06834,-4.567c0.75904,-1.766 1.1386,-3.616 1.1386,-5.5499c0,-3.8997 -1.42228,-7.2719 -4.26694,-10.11681c-2.84456,-2.8129 -6.21658,-4.21935 -10.11595,-4.21935c-1.93374,0 -3.78348,0.38358 -5.54943,1.15074c-1.76585,0.76715 -3.28812,1.79002 -4.56657,3.06861c-1.27849,1.27859 -2.29728,2.80491 -3.05637,4.57891c-0.75911,1.7741 -1.13865,3.628 -1.13865,5.5619zm7.74278,5.9455l2.15752,-5.7297c0.07989,-0.1599 0.07989,-0.3277 0,-0.5035l-2.15752,-5.6338c-0.07989,-0.1598 -0.07189,-0.2876 0.024,-0.3835c0.09589,-0.0959 0.23178,-0.1039 0.40757,-0.024l14.33489,6.0413c0.17589,0.032 0.26378,0.1199 0.26378,0.2637c0,0.1279 -0.08789,0.2078 -0.26378,0.2398l-14.33489,6.1612c-0.17579,0.0639 -0.31167,0.0519 -0.40757,-0.036c-0.09589,-0.0879 -0.10389,-0.2197 -0.024,-0.3955z"/>
 </g>
</svg>

<svg width="38" height="37" viewBox="0 0 38 37" fill="none" xmlns="http://www.w3.org/2000/svg">
<path d="M0.945312 18.4883C0.945312 15.9951 1.42878 13.6097 2.39571 11.3322C3.36265 9.05471 4.66521 7.10087 6.3034 5.47066C7.9416 3.84046 9.89145 2.5379 12.153 1.56297C14.4145 0.588048 16.7918 0.100586 19.2851 0.100586C21.7943 0.100586 24.1837 0.588048 26.4532 1.56297C28.7227 2.5379 30.6805 3.84446 32.3267 5.48265C33.9729 7.12084 35.2834 9.07469 36.2584 11.3442C37.2333 13.6137 37.7208 15.9871 37.7208 18.4643C37.7208 20.9576 37.2333 23.343 36.2584 25.6204C35.2834 27.8979 33.9729 29.8598 32.3267 31.506C30.6805 33.1521 28.7227 34.4587 26.4532 35.4256C24.1837 36.3926 21.8023 36.876 19.3091 36.876C16.8318 36.876 14.4584 36.3926 12.1889 35.4256C9.91942 34.4587 7.96557 33.1561 6.32738 31.5179C4.68918 29.8797 3.38262 27.9259 2.4077 25.6564C1.43277 23.3869 0.945312 20.9975 0.945312 18.4883ZM4.97287 18.4883C4.97287 21.0775 5.61616 23.4708 6.90274 25.6684C8.18932 27.866 9.9354 29.6001 12.141 30.8707C14.3465 32.1413 16.7359 32.7766 19.3091 32.7766C21.2429 32.7766 23.0969 32.397 24.8709 31.6378C26.645 30.8786 28.1753 29.8598 29.4619 28.5812C30.7484 27.3026 31.7713 25.7803 32.5305 24.0142C33.2896 22.2482 33.6692 20.3982 33.6692 18.4643C33.6692 14.5646 32.2468 11.1924 29.4019 8.34749C26.5571 5.53459 23.1848 4.12814 19.2851 4.12814C17.3512 4.12814 15.5013 4.51172 13.7352 5.27888C11.9692 6.04603 10.4468 7.0689 9.16825 8.34749C7.88965 9.62608 6.87078 11.1524 6.11162 12.9264C5.35245 14.7005 4.97287 16.5544 4.97287 18.4883ZM12.7163 24.4338L14.874 18.7041C14.9539 18.5442 14.9539 18.3764 14.874 18.2006L12.7163 12.5668C12.6364 12.407 12.6444 12.2792 12.7403 12.1833C12.8362 12.0874 12.9721 12.0794 13.1479 12.1593L27.484 18.2006C27.6599 18.2326 27.7478 18.3205 27.7478 18.4643C27.7478 18.5922 27.6599 18.6721 27.484 18.7041L13.1479 24.8653C12.9721 24.9292 12.8362 24.9172 12.7403 24.8293C12.6444 24.7414 12.6364 24.6096 12.7163 24.4338Z" fill="#9DB5FF"/>
</svg>
